src/xmb/monochrome/Jump 'n Bump.svg

<?xml version="1.0" encoding="UTF-8" standalone="no"?>
<!-- Generator: Adobe Illustrator 16.0.0, SVG Export Plug-In . SVG Version: 6.00 Build 0)  -->

<svg
   version="1.1"
   id="svg2"
   inkscape:export-filename="/home/kivutar/Bureau/lakka-menu/reload.png"
   inkscape:export-xdpi="90"
   inkscape:version="1.1.2 (0a00cf5339, 2022-02-04)"
   inkscape:export-ydpi="90"
   sodipodi:docname="Jump 'n Bump.svg"
   x="0px"
   y="0px"
   width="64px"
   height="64px"
   viewBox="0 128 64 64"
   enable-background="new 0 128 64 64"
   xml:space="preserve"
   xmlns:inkscape="http://www.inkscape.org/namespaces/inkscape"
   xmlns:sodipodi="http://sodipodi.sourceforge.net/DTD/sodipodi-0.dtd"
   xmlns="http://www.w3.org/2000/svg"
   xmlns:svg="http://www.w3.org/2000/svg"
   xmlns:rdf="http://www.w3.org/1999/02/22-rdf-syntax-ns#"
   xmlns:cc="http://creativecommons.org/ns#"
   xmlns:dc="http://purl.org/dc/elements/1.1/"><metadata
     id="metadata8"><rdf:RDF><cc:Work
         rdf:about=""><dc:format>image/svg+xml</dc:format><dc:type
           rdf:resource="http://purl.org/dc/dcmitype/StillImage" /></cc:Work></rdf:RDF></metadata><defs
     id="defs6" /><sodipodi:namedview
     pagecolor="#808080"
     bordercolor="#666666"
     borderopacity="1"
     objecttolerance="10"
     gridtolerance="10"
     guidetolerance="10"
     inkscape:pageopacity="0"
     inkscape:pageshadow="2"
     inkscape:window-width="1680"
     inkscape:window-height="1014"
     id="namedview4"
     showgrid="false"
     inkscape:zoom="2.6074563"
     inkscape:cx="149.18755"
     inkscape:cy="47.555927"
     inkscape:window-x="0"
     inkscape:window-y="0"
     inkscape:window-maximized="1"
     inkscape:current-layer="svg2"
     inkscape:pagecheckerboard="0" /><path
     id="Utilities-6"
     style="fill:#ffffff;fill-opacity:1"
     d="M 32.214844 5.2480469 C 9.7998436 5.2480469 5.2148438 9.8010469 5.2148438 32.248047 C 5.2148438 54.695047 9.7288436 59.248047 32.214844 59.248047 C 54.703844 59.248047 59.214844 54.704047 59.214844 32.248047 C 59.214844 9.7900469 54.629844 5.2480469 32.214844 5.2480469 z M 38.408203 13.841797 L 45.703125 13.841797 L 45.703125 16.232422 L 48.019531 16.232422 L 48.019531 18.814453 L 40.710938 18.814453 L 40.710938 23.707031 L 43.216797 23.707031 L 43.216797 26.082031 L 45.716797 26.082031 L 45.716797 31.152344 L 48.107422 31.152344 L 48.107422 35.978516 L 45.662109 35.978516 L 45.662109 38.386719 L 40.736328 38.386719 L 40.736328 43.294922 L 38.292969 43.294922 L 38.292969 45.679688 L 43.205078 45.679688 L 43.205078 48.144531 L 45.673828 48.144531 L 45.673828 50.652344 L 18.816406 50.5625 L 18.816406 48.099609 L 21.103516 48.099609 L 21.103516 45.802734 L 18.755859 45.802734 L 18.755859 43.236328 L 16.324219 43.236328 L 16.324219 40.708984 L 18.644531 40.708984 L 18.644531 38.492188 L 26.171875 38.492188 L 26.171875 35.876953 L 23.658203 35.876953 L 23.658203 26.265625 L 26.115234 26.265625 L 26.115234 23.605469 L 28.537109 23.605469 L 28.537109 21.300781 L 18.773438 21.300781 L 18.773438 16.222656 L 21.15625 16.222656 L 21.15625 13.917969 L 28.476562 13.917969 L 28.476562 16.328125 L 31.048828 16.328125 L 31.048828 18.699219 L 33.3125 18.699219 L 33.3125 23.785156 L 35.884766 23.785156 L 35.884766 16.275391 L 38.408203 16.275391 L 38.408203 13.841797 z "
     transform="translate(0,128)" /></svg>

<svg xmlns="http://www.w3.org/2000/svg" xml:space="preserve" width="64" height="64" viewBox="0 128 64 64"><path d="M32.215 5.248c-22.415 0-27 4.553-27 27s4.514 27 27 27c22.489 0 27-4.544 27-27 0-22.458-4.585-27-27-27m6.193 8.594h7.295v2.39h2.317v2.582h-7.31v4.893h2.507v2.375h2.5v5.07h2.39v4.827h-2.445v2.408h-4.926v4.908h-2.443v2.385h4.912v2.465h2.469v2.507l-26.858-.09V48.1h2.288v-2.297h-2.348v-2.567h-2.432V40.71h2.32v-2.217h7.528v-2.615h-2.514v-9.611h2.457v-2.66h2.422V21.3h-9.764v-5.078h2.383v-2.305h7.32v2.41h2.573V18.7h2.264v5.086h2.572v-7.51h2.523z" style="fill:#fff;fill-opacity:1" transform="translate(0 128)"/></svg>
